inshallah-script.svg

<svg height="128" viewBox="0 0 128 96" width="128pt" xmlns="http://www.w3.org/2000/svg"><g fill="#00f0fd"><path d="m56.69 1.49c3.94 6.59 3.71 14.89.93 21.86-.53-5.79.85-12.11-2.86-17.15.64-1.57 1.28-3.14 1.93-4.71z"/><path d="m81.61 3.27c4.03 7.21 10.53 12.46 17.13 17.2-.64-3.66-1.17-7.35-2.33-10.89.96-2.2 2.02-4.35 3.13-6.47 2.74 5.74 5.34 11.65 6.81 17.85-.84-.49-2.54-1.47-3.38-1.96.33 1.92.63 3.84.96 5.76 7.56 6.47 15.08 13.67 18.89 23.06 4.66 12.04 1.66 27.04-8.64 35.24 3.69-5.66 6.73-12.07 6.46-19.01.56-12.05-7.02-22.55-15.66-30.16 1.6 9.71 2.97 19.46 4.1 29.24.11 5.62-.54 11.48-3.3 16.49-.56-17.01-3.3-33.84-5.93-50.62-4.2-3.56-8.52-7-13.12-10.03 1.11 2.96 2.68 5.76 3.47 8.84.36 5.43.51 11.75-3.55 15.95-2.17 2.43-5.7 1.95-8.59 1.71-5.17-1.46-8.1-6.39-9.8-11.13-1.17 3.99-1.89 8.67-5.64 11.16-3.17 2.7-8.38 3.39-11.68.56-3.36-2.51-4.99-6.86-4.89-10.98-.24-4.96 1.23-9.73 2.14-14.55-.43.18-1.28.54-1.7.72-2.89 7.67-2.69 16.09-5.66 23.73-.88 2.37-2.95 5.27-5.87 4.46-3.09-1.32-4.64-4.61-5.74-7.59-2.35-6.04-2.54-12.73-1.4-19.05-5.28-4.35-.69-11.71 3.23-15.36-1.49 3.77-5.26 8.58-1.28 12.12 1.02-.45 2.04-.89 3.07-1.33-.87 2.02-2.14 3.82-3.89 5.16.01 5.48-.03 11.22 2.33 16.3 1.07 1.96 2.95 4.33 5.5 3.63 2.27-1.71 3.36-4.48 3.89-7.17 1.38-7.1 1.99-14.59 5.53-21.04.99-1.92 3.19-2.49 5.04-3.22.92 6.99-2.56 13.56-2.1 20.52.47 3.57 2.66 7.77 6.62 8.19 5.26.81 9.8-3.72 10.79-8.6 1.46-7.22.26-14.71-2.04-21.63 1.07-2.09 2.1-4.2 3.19-6.29 2.92 8.05 4.38 16.57 4.63 25.12-.12 4.2 3.46 7.37 7.02 8.89 2.93 1.31 5.8-.63 8.16-2.19-.89-5.3-3.74-9.98-5.11-15.15-1.21-3.68-1.17-7.78-3.2-11.16.81-2.11 1.59-4.22 2.41-6.32z"/><path d="m41 8.67c.86-1.41 1.47-3.54 3.5-3.46.49.66 1.48 1.98 1.97 2.64-.88-.13-2.65-.4-3.53-.53.03.31.08.95.11 1.26.55-.14 1.66-.44 2.22-.59.35.76 1.06 2.28 1.42 3.04-.57.11-1.71.33-2.28.44-2.85 3.12-5.69 6.46-9.68 8.17 2.63-3.22 6.13-5.58 8.76-8.81-.83-.71-1.66-1.44-2.49-2.16z"/><path d="m5.63 28.5c2.84-5.23 7.46-9.08 11.77-13.05 2.94 5.98 3.55 12.68 4.79 19.14 1.11 5.82 1.17 11.77 1.93 17.64 5.56 1.21 11.22 1.86 16.88 2.29-1.62 4.4-3.28 8.84-3.89 13.52 4.3-.34 8.67-1.17 12.4-3.44 3.1-1.96 6.07-4.13 9.27-5.93-.08 1.78-.2 3.56-.36 5.33 2.13 2.78 5.93 4.9 9.29 2.8 4.66-1.95 4.86-8.08 9.3-10.33-.39 2-.89 3.97-1.42 5.94 2.28 3.09 6.29 2.92 9.4 1.28-2.54-3.08-2.62-7.13-.35-10.41 3.44 3.83 3.16 9.63 1.73 14.24-.91 3.48-4.93 4.75-8.12 3.94-2.51-.23-3.65-2.85-5.23-4.44-1.53 3.05-3.45 6.4-7.05 7.24-5.17 1.67-10.34-3.12-10.25-8.29-5.13 4.42-11.29 7.52-17.81 9.31 2.18 5.65 7.27 10.08 13.4 10.68 9.89 1.95 19.32-2.53 28.12-6.43 5.93-3.28 12.17-6.48 16.72-11.65-.51-2.58-1.76-4.92-2.73-7.35-1.66-3.79-2.42-7.88-3.96-11.72.79-2.29 1.49-4.61 2.18-6.94 2.01 2.85 4.49 5.34 6.27 8.35-.72.02-2.17.07-2.89.09 1.68 4.46 3.56 8.96 4.09 13.72-.3 4.4-1.52 9.22-5.06 12.16-9.35 8.9-21.39 15.02-34.08 17.39-5.74.51-12.18.93-17.1-2.64-4.93-3.41-7.04-9.57-7.5-15.33-8.97-.67-13.78-9.72-14.86-17.72-6.78-2-14.46-4.97-17.49-11.93-2.73-5.79-.07-12.19 2.61-17.46m.54 7.88c1 7.09 7.26 12.15 13.56 14.67-1.09-10.32-2.22-20.73-5.32-30.68-4.55 4.06-8.71 9.59-8.24 16.01m19.28 22.71c1.84 4.3 5.04 8.21 9.8 9.32.51-2.83 1.07-5.65 1.72-8.45-3.85-.2-7.69-.46-11.52-.87z"/><path d="m76.75 31.56c-1.82-3.01-.19-6.1 1.18-8.89 1.33 2.02 3.85 3.73 3.23 6.5-1.26 1.14-2.89 1.7-4.41 2.39m.2-4.54c-1.12 1.44 1.29 3.16 2.39 1.8 1.09-1.39-1.34-3.17-2.39-1.8z"/><path d="m58.7 31.58c.75-2.7 1.82-5.31 3.32-7.69 1.1.6 2.19 1.22 3.27 1.85-.37.52-1.1 1.55-1.47 2.07-.46-.39-1.39-1.18-1.85-1.57-1.59 2.97-2.6 6.19-3.66 9.38-.82-1.88-1.6-3.78-2.41-5.66-1.32-.53-2.6-1.15-3.86-1.82.34-1.18.68-2.36 1.03-3.53 3.45.61 4.21 4.34 5.63 6.97z"/><path d="m72.66 46.28c2.14.98 4.29 1.92 6.43 2.88-.38 2.35-.73 4.71-1.63 6.93-2.03-.92-4.15-1.71-5.95-3.04-.21-2.32.67-4.54 1.15-6.77z"/><path d="m61.29 48.51c2.14 1.02 4.28 2.03 6.4 3.07-.48 2.22-.94 4.45-1.39 6.68-2.06-.72-4.2-1.35-5.98-2.65-.77-2.35.62-4.78.97-7.1z"/><path d="m50.34 49.83c2.06.94 4.12 1.89 6.2 2.8-.49 2.16-.99 4.32-1.52 6.47-2.35-.5-4.46-1.65-6.43-2.99.51-2.11 1.1-4.21 1.75-6.28z"/><path d="m73.44 69.5c.08.61.22 1.83.3 2.44 1.18 1.16 3.19 2.07 3.02 4.03.8 3.34-3.09 5.23-5.89 4.67-1.18-4 .73-7.72 2.57-11.14m-1.17 5.43c-.09.86-.28 2.58-.38 3.44 1.33-.45 2.65-.9 3.96-1.38-1.18-.7-2.37-1.39-3.58-2.06z"/><path d="m49.37 79.52c-.86-2.31.76-4.63 1.22-6.87 2.04 1.05 4.09 2.08 6.13 3.12-.45 2.03-.87 4.08-1.45 6.08-2.02-.59-4.22-.97-5.9-2.33z"/><path d="m21.16 81.15c1.38-3.13 3.8-7.08 7.83-5.42-.22.89-.64 2.67-.85 3.56-1.1.05-2.14-.32-3.2-.55-.31.34-.95 1.01-1.26 1.35 1.42.45 2.83.99 4.31 1.23 1.9-.77 3.64-1.86 5.48-2.75-1.37 5.41-7.54 6.88-12.08 8.71.82-1.16 1.7-2.26 2.61-3.34-.98-.9-1.92-1.83-2.84-2.79z"/><path d="m93.04 82.5c1.4-2.27 2.69-6.04 5.77-6.15 2.49-.01 1.8 2.64 1.35 4.19-1.59.01-3.18-.19-4.76-.19 1.19 1.16 2.63 2.21 4.37 2.24 1.9-.84 3.7-1.89 5.63-2.65-1.48 5.37-7.61 6.67-12.1 8.56.86-1.16 1.78-2.26 2.73-3.35-1.02-.85-2.02-1.74-2.99-2.65z"/></g></svg>

<svg xmlns="http://www.w3.org/2000/svg" width="128pt" height="128" viewBox="0 0 128 96"><g fill="#00f0fd"><path d="M 54.76 6.18 C 55.41 4.61 56.05 3.04 56.70 1.47 C 60.58 8.07 60.48 16.41 57.55 23.34 C 57.18 17.54 58.41 11.23 54.76 6.18 Z"/><path d="M 81.61 3.27 C 85.64 10.48 92.15 15.73 98.74 20.48 C 98.09 16.82 97.57 13.11 96.41 9.56 C 97.37 7.37 98.43 5.23 99.54 3.11 C 102.30 8.85 104.83 14.78 106.40 20.97 C 105.25 20.33 104.11 19.68 102.98 19.02 C 103.30 20.93 103.60 22.84 103.92 24.75 C 110.98 30.76 117.85 37.37 121.97 45.81 C 127.76 58.15 125.09 74.41 114.16 83.06 C 117.88 77.40 120.91 70.97 120.64 64.03 C 121.19 51.98 113.60 41.51 104.98 33.87 C 106.57 43.57 107.95 53.29 109.07 63.05 C 109.21 68.71 108.54 74.59 105.78 79.64 C 105.22 62.63 102.48 45.79 99.85 29.00 C 95.65 25.43 91.32 22.00 86.72 18.96 C 87.84 21.94 89.43 24.75 90.20 27.84 C 90.56 33.26 90.70 39.57 86.64 43.77 C 84.48 46.19 80.96 45.70 78.08 45.48 C 72.90 44.03 69.97 39.09 68.27 34.34 C 67.09 38.56 66.17 43.51 62.03 45.91 C 57.86 49.32 51.16 48.11 48.45 43.45 C 43.94 36.54 46.72 27.95 48.21 20.53 C 47.78 20.71 46.92 21.07 46.49 21.24 C 43.61 28.91 43.80 37.32 40.84 44.94 C 39.97 47.32 37.91 50.23 34.98 49.45 C 31.86 48.12 30.31 44.80 29.21 41.80 C 26.88 35.77 26.68 29.11 27.82 22.80 C 22.51 18.44 27.18 11.10 31.05 7.41 C 29.54 11.18 25.93 15.96 29.74 19.57 C 30.78 19.11 31.82 18.66 32.86 18.22 C 31.97 20.24 30.67 22.04 28.94 23.42 C 28.96 28.89 28.93 34.61 31.28 39.67 C 32.34 41.65 34.25 44.05 36.80 43.30 C 39.06 41.59 40.14 38.82 40.68 36.12 C 42.05 29.04 42.66 21.57 46.19 15.13 C 47.17 13.20 49.39 12.65 51.23 11.88 C 52.72 20.65 45.42 30.52 51.71 38.39 C 56.12 43.39 64.18 39.50 66.00 33.90 C 68.34 26.20 66.95 17.88 64.51 10.37 C 65.59 8.26 66.64 6.14 67.75 4.05 C 70.54 12.15 72.13 20.64 72.33 29.20 C 72.27 36.13 82.19 41.87 87.21 35.85 C 87.40 31.82 84.73 28.34 83.67 24.56 C 81.50 19.76 81.65 14.23 79.20 9.57 C 80.02 7.47 80.79 5.36 81.61 3.27 Z"/><path d="M 40.98 8.65 C 41.77 7.22 42.57 5.72 44.09 4.95 C 44.65 5.58 45.77 6.84 46.32 7.47 C 45.45 7.40 43.72 7.26 42.85 7.19 L 43.12 8.76 L 43.84 8.17 C 44.88 9.13 45.93 10.07 47.01 11.00 C 46.36 11.11 45.06 11.35 44.41 11.46 C 41.56 14.59 38.72 17.96 34.71 19.62 C 37.39 16.44 40.84 14.04 43.50 10.85 C 42.65 10.12 41.81 9.38 40.98 8.65 Z"/><path d="M 4.65 30.48 C 7.31 24.30 12.55 19.87 17.41 15.45 C 20.34 21.48 20.97 28.21 22.21 34.70 C 23.31 40.49 23.36 46.40 24.13 52.23 C 29.68 53.44 35.34 54.09 41.00 54.52 C 39.37 58.92 37.73 63.37 37.12 68.05 C 41.40 67.68 45.76 66.88 49.47 64.62 C 52.59 62.65 55.58 60.48 58.78 58.66 C 58.71 60.45 58.58 62.24 58.42 64.03 C 60.48 66.46 63.62 68.69 66.92 67.18 C 72.15 65.49 72.46 58.96 76.98 56.39 C 76.64 58.43 76.12 60.44 75.60 62.44 C 77.90 65.49 81.88 65.32 84.99 63.71 C 82.45 60.61 82.41 56.59 84.61 53.28 C 88.10 57.09 87.79 62.91 86.37 67.53 C 85.45 71.03 81.39 72.28 78.18 71.45 C 75.72 71.19 74.59 68.60 73.02 67.02 C 71.49 70.06 69.57 73.42 65.97 74.26 C 60.81 75.93 55.66 71.15 55.71 66.00 C 50.56 70.40 44.42 73.49 37.91 75.30 C 39.65 79.26 42.37 82.88 46.46 84.60 C 53.93 87.58 62.45 86.59 69.77 83.61 C 79.29 79.86 89.00 75.41 96.15 67.88 C 95.61 65.30 94.38 62.92 93.41 60.49 C 91.75 56.71 90.99 52.62 89.46 48.80 C 90.25 46.52 90.95 44.20 91.63 41.88 C 93.67 44.71 96.07 47.25 97.97 50.18 C 97.23 50.22 95.76 50.29 95.03 50.32 C 96.70 54.77 98.58 59.27 99.11 64.03 C 98.82 68.42 97.59 73.24 94.06 76.17 C 84.73 85.07 72.72 91.18 60.05 93.57 C 54.31 94.09 47.87 94.53 42.94 90.98 C 37.97 87.59 35.84 81.40 35.37 75.63 C 26.40 74.92 21.59 65.90 20.52 57.89 C 13.75 55.89 6.08 52.94 3.04 46.00 C 0.59 40.95 2.40 35.24 4.65 30.48 M 6.16 36.35 C 7.13 43.47 13.44 48.48 19.70 51.08 C 18.67 40.74 17.49 30.32 14.41 20.37 C 9.88 24.42 5.71 29.93 6.16 36.35 M 25.44 59.09 C 27.30 63.40 30.50 67.27 35.24 68.43 C 35.76 65.60 36.32 62.77 36.97 59.97 C 33.12 59.76 29.28 59.50 25.44 59.09 Z"/><path d="M 76.72 31.55 C 75.00 28.56 76.52 25.48 77.87 22.71 C 79.58 24.59 81.24 26.58 81.46 29.24 C 79.92 30.08 78.33 30.85 76.72 31.55 M 76.97 27.00 C 75.81 28.42 78.19 30.18 79.31 28.84 C 80.44 27.47 78.05 25.65 76.97 27.00 Z"/><path d="M 58.68 31.55 C 59.46 28.86 60.54 26.26 62.02 23.88 C 63.12 24.48 64.21 25.10 65.29 25.74 C 64.92 26.26 64.18 27.29 63.82 27.81 C 63.35 27.41 62.43 26.63 61.97 26.23 C 60.35 29.20 59.41 32.45 58.31 35.62 C 57.49 33.75 56.71 31.87 55.93 29.98 C 54.61 29.43 53.32 28.81 52.06 28.16 C 52.39 26.95 52.73 25.74 53.09 24.54 C 56.48 25.28 57.29 28.90 58.68 31.55 Z"/><path d="M 72.65 46.28 C 74.79 47.26 76.95 48.20 79.10 49.17 C 78.71 51.51 78.31 53.87 77.48 56.10 C 75.44 55.18 73.32 54.38 71.51 53.05 C 71.31 50.74 72.17 48.51 72.65 46.28 Z"/><path d="M 59.98 55.07 C 60.12 52.83 60.77 50.68 61.30 48.51 C 63.43 49.53 65.57 50.54 67.69 51.58 C 67.22 53.81 66.75 56.04 66.30 58.28 C 64.12 57.41 61.54 56.96 59.98 55.07 Z"/><path d="M 50.33 49.83 C 52.40 50.77 54.47 51.72 56.55 52.63 C 56.05 54.79 55.55 56.95 55.01 59.10 C 52.68 58.58 50.57 57.45 48.59 56.13 C 49.10 54.01 49.68 51.91 50.33 49.83 Z"/><path d="M 70.85 80.63 C 69.70 76.62 71.61 72.92 73.46 69.49 C 73.53 70.09 73.68 71.30 73.75 71.90 C 74.87 73.09 76.88 73.99 76.76 75.91 C 77.59 79.29 73.69 81.20 70.85 80.63 M 72.39 74.85 C 72.25 75.73 71.98 77.47 71.84 78.34 C 73.20 77.93 74.57 77.50 75.92 77.05 C 74.76 76.30 73.58 75.57 72.39 74.85 Z"/><path d="M 49.44 79.57 C 48.43 77.30 50.16 74.89 50.59 72.64 C 52.63 73.70 54.68 74.73 56.73 75.77 C 56.28 77.81 55.84 79.85 55.26 81.86 C 53.27 81.26 51.10 80.90 49.44 79.57 Z"/><path d="M 24.34 76.26 C 25.58 74.92 27.50 75.63 29.05 75.72 C 28.76 76.97 28.41 78.21 28.02 79.44 C 26.99 79.23 25.97 78.99 24.96 78.71 C 24.64 79.06 23.99 79.76 23.67 80.11 C 25.10 80.54 26.51 81.06 27.99 81.32 C 29.90 80.55 31.66 79.45 33.52 78.56 C 32.09 83.98 25.92 85.42 21.39 87.32 C 22.20 86.15 23.07 85.04 23.97 83.94 C 23.01 83.04 22.07 82.12 21.17 81.17 C 22.13 79.48 22.92 77.63 24.34 76.26 Z"/><path d="M 93.07 82.51 C 94.46 80.20 96.09 75.58 99.50 76.55 C 101.51 76.91 100.31 79.10 100.18 80.43 C 98.50 80.57 96.81 80.41 95.13 80.59 C 96.61 81.36 98.04 82.50 99.78 82.60 C 101.68 81.74 103.48 80.68 105.43 79.92 C 103.92 85.34 97.76 86.56 93.27 88.56 C 94.13 87.40 95.05 86.27 95.99 85.17 C 94.99 84.31 94.02 83.42 93.07 82.51 Z"/></g></svg>
